X:128
M:2/4
L:1/8
Q:1/4=200
K:D
f3 d|e2c2|d3::A|A3 A|B2B2|
c2c2|d2 z d|e2 ze|f3 f|^g2g2|a2 z a|a2f2|f2 z a|g2e2|e2 z d|e2d2|
c2d2|g2f2|{g/}(f2 e)a|a2f2|f2 z a|\
g2e2|e2 z g|(fe)(gf)| e2d2|(fe)(dc)| d3:|

